X: 1
T:Los Engualichados
M:6/8
Q:"Chacarera"
C:Culebr\'on Timbal
K:Eb
V:1 name="Alto 1"
%%MIDI program 65
Z4|:
Z4|f6 |
e6|d6|
g6|
.A2 A .c2 B|z6|
.A2 G .A2 G|z6   |
AAA c2 B|z6|
AAG A2 G|z6||
Z4|f6 |
e6|d6|
g6|
.A2 A .c2 B|z6|
.A2 G .A2 G|z6   |
AAA c2 B|z6|
AAG A2 G|z6||
Z4|f6 |
e6|d6|
g6|
Z4|f6 |
e6|d6|
g2 g2 g2|1
(c3- c2 B|c3- cBA|
d3- d2 A|B3- B3)|
(B3- BAG|c3- c2 B|
A3- A2) G|(G2 B2 d2) |
(c3- c2 B|c3- cBA|
d3- d2 A|B3- B3)|
(B3- BAG|c3- c2 B|
A3- A2) G|(G2 B2 d2) |
.A2 A .c2 B|z6|
.A2 G .A2 G|z6   |
AAA c2 B|z6|
AAG A2 G|z6:|2
.A2 A .c2 B|z6|
.A2 G .A2 G|z6   |
AAA c2 B|z6|
AAG A2 G|z6|]
V:2 name="Alto 2"
%%MIDI program 65
Z4|:
Z4|A6|
_G6|F6|
B6|
.F2 F .A2 G|z6|
.F2 E .F2 E|z6|  
FFF A2 G|z6|
FFE F2 E|z6   ||
Z4|A6|
_G6|F6|
B6|
.F2 F .A2 G|z6|
.F2 E .F2 E|z6|  
FFF A2 G|z6|
FFE F2 E|z6   ||
Z4|A6|
_G6|F6|
B6|
Z4|A6|
_G6|F6|
B2 B2 B2|1
(A3- A2 G|A3- AGF|
B3- B2 F|G3- G3)|
(G3- GFE|A3- A2 G|
F3- F2) E|(=E2 G2 B2) |
(A3- A2 G|A3- AGF|
B3- B2 F|G3- G3)|
(G3- GFE|A3- A2 G|
F3- F2) E|(=E2 G2 B2) |
.F2 F .A2 G|z6|
.F2 E .F2 E|z6|  
FFF A2 G|z6|
FFE F2 E|z6   :|2
.F2 F .A2 G|z6|
.F2 E .F2 E|z6|  
FFF A2 G|z6|
FFE F2 E|z6   |]
V:3 name="Tenor 1"
%%MIDI program 65
Z4|:
Z4|F6 |
E6|D6|
G6|
.A,2 A, .C2 B,|z6|
.A,2 G, .A,2 G,|z6   |
A,A,A, C2 B,|z6|
A,A,G, A,2 G,|z6||
Z4|F6 |
E6|D6|
G6|
.A,2 A, .C2 B,|z6|
A,2 G, .A,2 G,|z6   |
A,A,A, C2 B,|z6|
A,A,G, A,2 G,|z6||
Z4|F6 |
E6|D6|
G6|
Z4|F6 |
E6|D6|
G2 G2 G2|1
(C3- C2 B,|C3- CB,A,|
D3- D2 A,|B,3- B,3)|
(B,3- B,A,G,|C3- C2 B,|
A,3- A,2) G,|(G,2 B,2 D2) |
(C3- C2 B,|C3- CB,A,|
D3- D2 A,|B,3- B,3)|
(B,3- B,A,G,|C3- C2 B,|
A,3- A,2) G,|(G,2 B,2 D2) |
.A,2 A, .C2 B,|z6|
.A,2 G, .A,2 G,|z6   |
A,A,A, C2 B,|z6|
A,A,G, A,2 G,|z6:|2
.A,2 A, .C2 B,|z6|
.A,2 G, .A,2 G,|z6   |
A,A,A, C2 B,|z6|
A,A,G, A,2 G,|z6|]
V:4 name="Tenor 2"
%%MIDI program 66
Z4|:
Z4|D6 |
C6|B,6|
=E6|
.F,2 F, .A,2 G,|z6|
.F,2 E, .F,2 E,|z6|
F,F,F, A,2 G,|z6|
F,F,E, F,2 E,|z6   ||
Z4|D6 |
C6|B,6|
=E6|
.F,2 F, .A,2 G,|z6|
.F,2 E, .F,2 E,|z6|
F,F,F, A,2 G,|z6|
F,F,E, F,2 E,|z6   ||
Z4|D6 |
C6|B,6|
=E6|
Z4|D6 |
C6|B,6|
=E2 E2 E2|1
(A,3- A,2 G,|A,3- A,G,F,|
B,3- B,2 F,|G,3- G,3)|
(G,3- G,F,E,|A,3- A,2 G,|
F,3- F,2) E,|(=E,2 G,2 B,2)|
(A,3- A,2 G,|A,3- A,G,F,|
B,3- B,2 F,|G,3- G,3)|
(G,3- G,F,E,|A,3- A,2 G,|
F,3- F,2) E,|(=E,2 G,2 B,2)|
.F,2 F, .A,2 G,|z6|
.F,2 E, .F,2 E,|z6|
F,F,F, A,2 G,|z6|
F,F,E, F,2 E,|z6   |2
.F,2 F, .A,2 G,|z6|
.F,2 E, .F,2 E,|z6|
F,F,F, A,2 G,|z6|
F,F,E, F,2 E,|z6   |]
